src/assets/images/icons/gh-logo.svg

<svg xmlns="http://www.w3.org/2000/svg" viewBox="0 0 512 512"><path d="M256 .443C114.873.443.443 117.839.443 262.503c0 115.799 73.244 213.915 174.783 248.598 1.424.309 2.878.462 4.335.456 9.469 0 13.12-6.959 13.12-13.006 0-6.275-.228-22.703-.342-44.608a116.85 116.85 0 0 1-25.784 3.08c-49.172 0-60.353-38.219-60.353-38.219-11.637-30.234-28.408-38.334-28.408-38.334-22.247-15.63-.114-16.086 1.598-16.086h.114c25.67 2.281 39.132 27.153 39.132 27.153 12.778 22.361 29.891 28.636 45.179 28.636a71.864 71.864 0 0 0 29.206-6.846c2.282-16.885 8.899-28.408 16.201-35.025-56.702-6.617-116.37-29.092-116.37-129.49 0-28.636 9.926-52.024 26.24-70.278-2.624-6.617-11.408-33.314 2.51-69.365a21.266 21.266 0 0 1 5.705-.571c9.241 0 30.119 3.537 64.574 27.495a237.546 237.546 0 0 1 128.006 0c34.455-23.958 55.333-27.495 64.574-27.495a21.266 21.266 0 0 1 5.705.571c13.918 36.051 5.134 62.748 2.509 69.365 16.315 18.368 26.241 41.756 26.241 70.278 0 100.626-59.782 122.759-116.712 129.262 9.127 8.1 17.341 24.073 17.341 48.488 0 35.025-.342 63.318-.342 71.875 0 6.161 3.537 13.12 13.006 13.12a22.06 22.06 0 0 0 4.563-.456c101.653-34.683 174.783-132.913 174.783-248.598C511.557 117.839 397.127.443 256 .443Z"/></svg>

<?xml version="1.0" encoding="UTF-8"?>
<svg viewBox="0 0 512 512" version="1.1" xmlns="http://www.w3.org/2000/svg" xmlns:xlink="http://www.w3.org/1999/xlink">
	<path fill="#000000" d="M 256 0.443 C 114.873 0.443 0.443 117.839 0.443 262.503 C 0.443 378.302 73.687 476.418 175.226 511.101 C 176.65 511.41 178.104 511.563 179.561 511.557 C 189.03 511.557 192.681 504.598 192.681 498.551 C 192.681 492.276 192.453 475.848 192.339 453.943 C 183.885 455.924 175.237 456.958 166.555 457.023 C 117.383 457.023 106.202 418.804 106.202 418.804 C 94.565 388.57 77.794 380.47 77.794 380.47 C 55.547 364.84 77.68 364.384 79.392 364.384 L 79.506 364.384 C 105.176 366.665 118.638 391.537 118.638 391.537 C 131.416 413.898 148.529 420.173 163.817 420.173 C 173.925 419.971 183.878 417.638 193.023 413.327 C 195.305 396.442 201.922 384.919 209.224 378.302 C 152.522 371.685 92.854 349.21 92.854 248.812 C 92.854 220.176 102.78 196.788 119.094 178.534 C 116.47 171.917 107.686 145.22 121.604 109.169 C 123.471 108.722 125.39 108.53 127.309 108.598 C 136.55 108.598 157.428 112.135 191.883 136.093 C 233.748 124.38 278.024 124.38 319.889 136.093 C 354.344 112.135 375.222 108.598 384.463 108.598 C 386.382 108.53 388.301 108.722 390.168 109.169 C 404.086 145.22 395.302 171.917 392.677 178.534 C 408.992 196.902 418.918 220.29 418.918 248.812 C 418.918 349.438 359.136 371.571 302.206 378.074 C 311.333 386.174 319.547 402.147 319.547 426.562 C 319.547 461.587 319.205 489.88 319.205 498.437 C 319.205 504.598 322.742 511.557 332.211 511.557 C 333.744 511.564 335.273 511.411 336.774 511.101 C 438.427 476.418 511.557 378.188 511.557 262.503 C 511.557 117.839 397.127 0.443 256 0.443 Z"></path>
</svg>
